images/yfi.svg

<svg height="250" viewBox="0 0 250 250" width="250" xmlns="http://www.w3.org/2000/svg" xmlns:xlink="http://www.w3.org/1999/xlink"><linearGradient id="a" gradientUnits="userSpaceOnUse" x1="250" x2="0" y1="131.75" y2="132.5"><stop offset="0" stop-color="#075eb6"/><stop offset="1" stop-color="#0377fc"/></linearGradient><path d="m250 125c0 69.035156-55.964844 125-125 125s-125-55.964844-125-125 55.964844-125 125-125 125 55.964844 125 125zm0 0" fill="url(#a)"/><g fill="#fff"><path d="m135.824219 126.847656c3.421875 2.304688 6.347656 3.921875 8.847656 6.042969 3.515625 3.03125 6.878906 6.238281 10.070313 9.605469 4.882812 5.066406 6.980468 11.410156 7.996093 18.238281 1.710938 11.476563-1.46875 21.351563-8.441406 30.613281-9.820313 13.042969-31.511719 18.097656-44.457031 12.15625-7.164063-3.285156-13.632813-7.375-17.8125-13.601562-6.378906-9.5-10.410156-20.0625-5.695313-31.851563 1.21875-3.050781 2.363281-6.128906 3.652344-9.472656-4.875.976563-9.691406 1.929687-14.535156 2.898437-.835938-3.339843-1.660157-6.230468-2.195313-9.179687.089844-.871094.625-1.628906 1.414063-2.007813 10.703125-2.265624 21.449219-4.34375 32.152343-6.609374 1.902344-.40625 2.441407.15625 2.648438 1.855468.75 6.09375 1.511719 12.191406 2.359375 18.273438.628906 4.535156 1.304687 9.074218 2.136719 13.574218.347656 1.890626-.074219 2.757813-2.039063 2.929688-2.875.246094-5.734375.621094-8.703125.957031l-2.699218-17.917969c-4.003907 7.199219-6.6875 13.585938-3.949219 21.09375 2.1875 5.988282 5.230469 11.488282 10.519531 15.066407 8.515625 5.769531 17.757812 7.367187 27.597656 3.207031 5.464844-2.164062 10.082032-6.035156 13.167969-11.035156 4.226563-6.597656 5.449219-14.675782 3.363281-22.226563-1.917968-7.09375-5.695312-12.730469-12.207031-16.503906-2.015625-1.171875-3.597656-2.945313-3.269531-5.886719.347656-3.082031.078125-6.238281.078125-10.21875zm0 0"/><path d="m160.746094 98.75c4.792968-1.628906 9.191406-3.117188 14.050781-4.765625 1.003906 2.890625 2.113281 5.570313 2.792969 8.359375-.054688 1.070312-.648438 2.042969-1.582032 2.570312-9.421874 3.625-18.882812 7.140626-28.382812 10.546876-4.023438 1.457031-4.003906 1.121093-5.078125-2.992188-2.09375-8.054688-4.558594-16.015625-6.855469-24.023438-.628906-2.1875-1.214844-4.394531-1.90625-6.898437 3.070313-1.097656 6.210938-2 9.394532-2.703125.640624-.113281 2.039062 1.960938 2.460937 3.234375.910156 2.761719 1.351563 5.664063 2.105469 8.484375.367187 1.390625 1.003906 2.703125 1.710937 4.558594 3.101563-5.679688 3.335938-11.261719 2.398438-16.929688-1.3125-8.753906-6.828125-16.3125-14.761719-20.238281-4.304688-2.140625-9.058594-3.21875-13.867188-3.140625-10.261718.179688-18.347656 5.136719-23.800781 13.921875-6.121093 10.042969-5.074219 22.890625 2.589844 31.816406 3.058594 3.21875 6.429687 6.125 10.066406 8.675781 1.796875 1.34375 2.683594 2.667969 2.605469 4.882813-.117188 3.332031-.03125 6.667969-.03125 10.769531-2.964844-2.058594-5.5-3.605468-7.789062-5.453125-4.261719-3.441406-8.53125-6.894531-12.519532-10.636719-5.625-5.28125-8.203125-12.265624-9.34375-19.648437-2.050781-13.28125 2.011719-24.894531 11.5625-34.136719 10.238282-9.902344 22.703125-12.988281 36.6875-9.960937 10.375 2.246093 18.316406 8.203125 23.917969 16.824219 5.835937 8.984374 7.414063 19.125 5.1875 29.722656-.46875 2.238281-1 4.449218-1.613281 7.160156zm0 0"/><path d="m130.550781 73.65625v102.28125c-3.265625 0-6.367187.050781-9.46875-.019531-2.246093-.046875-1.5625-1.863281-1.5625-3.058594-.035156-16.214844-.039062-32.429687-.011719-48.644531 0-15.691406.066407-31.386719-.054687-47.070313-.023437-2.726562.648437-3.816406 3.492187-3.535156 2.375.234375 4.796876.046875 7.605469.046875zm0 0"/></g></svg>

<svg xmlns="http://www.w3.org/2000/svg" xmlns:xlink="http://www.w3.org/1999/xlink" width="250px" height="250px" viewBox="0 0 250 250" version="1.1">
<defs>
<linearGradient id="linear0" gradientUnits="userSpaceOnUse" x1="1" y1="0.527" x2="0" y2="0.53" gradientTransform="matrix(250,0,0,250,0,0)">
<stop offset="0" style="stop-color:rgb(2.745098%,36.862746%,71.372551%);stop-opacity:1;"/>
<stop offset="1" style="stop-color:rgb(1.176471%,46.666667%,98.823529%);stop-opacity:1;"/>
</linearGradient>
</defs>
<g id="surface1">
<path style=" stroke:none;fill-rule:nonzero;fill:url(#linear0);" d="M 250 125 C 250 194.035156 194.035156 250 125 250 C 55.964844 250 0 194.035156 0 125 C 0 55.964844 55.964844 0 125 0 C 194.035156 0 250 55.964844 250 125 Z M 250 125 "/>
<path style=" stroke:none;fill-rule:nonzero;fill:rgb(100%,100%,100%);fill-opacity:1;" d="M 135.824219 126.847656 C 139.246094 129.152344 142.171875 130.769531 144.671875 132.890625 C 148.1875 135.921875 151.550781 139.128906 154.742188 142.496094 C 159.625 147.5625 161.722656 153.90625 162.738281 160.734375 C 164.449219 172.210938 161.269531 182.085938 154.296875 191.347656 C 144.476562 204.390625 122.785156 209.445312 109.839844 203.503906 C 102.675781 200.21875 96.207031 196.128906 92.027344 189.902344 C 85.648438 180.402344 81.617188 169.839844 86.332031 158.050781 C 87.550781 155 88.695312 151.921875 89.984375 148.578125 C 85.109375 149.554688 80.292969 150.507812 75.449219 151.476562 C 74.613281 148.136719 73.789062 145.246094 73.253906 142.296875 C 73.34375 141.425781 73.878906 140.667969 74.667969 140.289062 C 85.371094 138.023438 96.117188 135.945312 106.820312 133.679688 C 108.722656 133.273438 109.261719 133.835938 109.46875 135.535156 C 110.21875 141.628906 110.980469 147.726562 111.828125 153.808594 C 112.457031 158.34375 113.132812 162.882812 113.964844 167.382812 C 114.3125 169.273438 113.890625 170.140625 111.925781 170.3125 C 109.050781 170.558594 106.191406 170.933594 103.222656 171.269531 L 100.523438 153.351562 C 96.519531 160.550781 93.835938 166.9375 96.574219 174.445312 C 98.761719 180.433594 101.804688 185.933594 107.09375 189.511719 C 115.609375 195.28125 124.851562 196.878906 134.691406 192.71875 C 140.15625 190.554688 144.773438 186.683594 147.859375 181.683594 C 152.085938 175.085938 153.308594 167.007812 151.222656 159.457031 C 149.304688 152.363281 145.527344 146.726562 139.015625 142.953125 C 137 141.78125 135.417969 140.007812 135.746094 137.066406 C 136.09375 133.984375 135.824219 130.828125 135.824219 126.847656 Z M 135.824219 126.847656 "/>
<path style=" stroke:none;fill-rule:nonzero;fill:rgb(100%,100%,100%);fill-opacity:1;" d="M 160.746094 98.75 C 165.539062 97.121094 169.9375 95.632812 174.796875 93.984375 C 175.800781 96.875 176.910156 99.554688 177.589844 102.34375 C 177.535156 103.414062 176.941406 104.386719 176.007812 104.914062 C 166.585938 108.539062 157.125 112.054688 147.625 115.460938 C 143.601562 116.917969 143.621094 116.582031 142.546875 112.46875 C 140.453125 104.414062 137.988281 96.453125 135.691406 88.445312 C 135.0625 86.257812 134.476562 84.050781 133.785156 81.546875 C 136.855469 80.449219 139.996094 79.546875 143.179688 78.84375 C 143.820312 78.730469 145.21875 80.804688 145.640625 82.078125 C 146.550781 84.839844 146.992188 87.742188 147.746094 90.5625 C 148.113281 91.953125 148.75 93.265625 149.457031 95.121094 C 152.558594 89.441406 152.792969 83.859375 151.855469 78.191406 C 150.542969 69.4375 145.027344 61.878906 137.09375 57.953125 C 132.789062 55.8125 128.035156 54.734375 123.226562 54.8125 C 112.964844 54.992188 104.878906 59.949219 99.425781 68.734375 C 93.304688 78.777344 94.351562 91.625 102.015625 100.550781 C 105.074219 103.769531 108.445312 106.675781 112.082031 109.226562 C 113.878906 110.570312 114.765625 111.894531 114.6875 114.109375 C 114.570312 117.441406 114.65625 120.777344 114.65625 124.878906 C 111.691406 122.820312 109.15625 121.273438 106.867188 119.425781 C 102.605469 115.984375 98.335938 112.53125 94.347656 108.789062 C 88.722656 103.507812 86.144531 96.523438 85.003906 89.140625 C 82.953125 75.859375 87.015625 64.246094 96.566406 55.003906 C 106.804688 45.101562 119.269531 42.015625 133.253906 45.042969 C 143.628906 47.289062 151.570312 53.246094 157.171875 61.867188 C 163.007812 70.851562 164.585938 80.992188 162.359375 91.589844 C 161.890625 93.828125 161.359375 96.039062 160.746094 98.75 Z M 160.746094 98.75 "/>
<path style=" stroke:none;fill-rule:nonzero;fill:rgb(100%,100%,100%);fill-opacity:1;" d="M 130.550781 73.65625 L 130.550781 175.9375 C 127.285156 175.9375 124.183594 175.988281 121.082031 175.917969 C 118.835938 175.871094 119.519531 174.054688 119.519531 172.859375 C 119.484375 156.644531 119.480469 140.429688 119.507812 124.214844 C 119.507812 108.523438 119.574219 92.828125 119.453125 77.144531 C 119.429688 74.417969 120.101562 73.328125 122.945312 73.609375 C 125.320312 73.84375 127.742188 73.65625 130.550781 73.65625 Z M 130.550781 73.65625 "/>
</g>
</svg>
